!! 00000] TT[WS
!!!OTL: Hanchuan diao
!!!ARE: Asia, China, Shanxi Ruicheng
!! Ethnic Group: Han
!! WI, 275
!!!SCT: J0327
!!!YEM: Copyright 1995, estate of Helmut Schaffrath.
**kern
*ICvox
*Ivox
*M2/4
*k[f#]
*G:
{8dd
8dd
8cc
8a
=1
8a
8dd
4a
=2
8a
8dd
4a
=3
8dd
8cc
4a}
=4
{8a
16g
16a
4g
=5
8dd
8dd
8f#
8d
=6
8dd
8g
4a
=7
8fn
8e
4d}
=8
{8d
8d
4g
=9
8a
16cc
16a
4g
=10
8a
16b
16a
4g
=11
4a
4r}
=12
{8a
16a
16dd
4g
=13
8a
8g
4d
=14
16a
16dd
8g
4a
=15
8ffn
8e
4d}
==
!!!AGN: Xiaodiao. Qingge
!!!ONB: ESAC (Essen Associative Code) Database: CHINA
!!!AMT: simple duple
!!!AIN: vox
!!!EED: Helmut Schaffrath
!!!EEV: 1.0
*-
